X:292137933412310
T:8-3-7-5-5-6-4-5-2-2-4-12-2-7-10-5
%%setfont-1 Courier-Bold 8
T:$1K.516f::152:06:27:85:161:97:110:100:70:121:15:92:112:162:149:170::$0
T:$1Perm. No.: 292137933412310$0
M:3/8
L:1/8
Q:1/8=111
%%staves [1 2]
V:1 clef=treble
V:2 clef=bass
K:C
%1
[V:1]|: gf/e/d/c/ |\
[V:2]|: [E,2C,2]z |\
%2
[V:1] Gce |\
[V:2] [E,2C,2]z |\
%3
[V:1] f/e/f/d/c/B/ |\
[V:2] [B,2G,2]z |\
%4
[V:1] ceG |\
[V:2] [G,2E,2]z |\
%5
[V:1] [d^F][d^F][d^F] |\
[V:2] C,C,C,   |\
%6
[V:1] g/^f/g/d/B/G/ |\
[V:2] [D,2B,,2][G,B,,] |\
%7
[V:1] ([d/B/][c/A/])([c/A/][B/G/])([B/G/][A/^F/]) \
[V:2] C,D,D,, \
%8a
[V:1]|1 [g2d2B2G2]z :|2
[V:2]|1 G,,G,/=F,/E,/D,/ :|2
%8b
[V:1] [g2d2B2G2]z |:\
[V:2] G,,B,/G,/^F,/E,/ |:\
%9
[V:1] ^fa/f/d/f/ |\
[V:2] D,2C, |\
%10
[V:1] gb/g/d |\
[V:2] [G,2B,,2]z |\
%11
[V:1] eg/e/c |\
[V:2] [G,2C,2][E,C,] |\
%12
[V:1] [dB]g/b/d |\
[V:2] [G,2G,,2]G, |\
%13
[V:1] ecG |\
[V:2] [E,/C,/]G,/[E,/C,/]G,/[E,/C,/]G,/ |\
%14
[V:1] e/d/e/g/c'/g/ |\
[V:2] [G,2C,2][E,C,] |\
%15
[V:1] f/d/AB |\
[V:2] F,2G, |\
%16
[V:1] c2z :|]
[V:2] C,G,,C,, :|]
